X:229
T:Esther's Reel
S:Button's and Bows
Z:robin.beech@mcgill.ca
R:reel
M:4/4
L:1/8
K:D
ED |: CDEF GABc | dDFD ADFD | EFGA BAGF | EBAF GEED |
EFGA BABc  | dDFD ADFD | EFGA BAGF | EBAF GEE2 ||
g3e fed2 | efga gfef | eBBB dBAF | GBAF GEE2 |
g3e fed2 | efga gfef | eBBB dBAF | GBAF GEED |]
